svg/aws-trusted-advisor-fault-tolerance.svg

<?xml version="1.0" encoding="UTF-8"?>
<svg xmlns="http://www.w3.org/2000/svg" xmlns:xlink="http://www.w3.org/1999/xlink" width="28" height="32" viewBox="0 0 28 32">
<path fill-rule="evenodd" fill="rgb(29.411766%, 38.039216%, 17.254902%)" fill-opacity="1" d="M 21.246094 19.535156 L 21.246094 1.242188 L 0 1.242188 L 0 22.492188 L 14.503906 22.492188 L 18.824219 15.765625 Z M 18.824219 16.488281 L 28 30.757812 L 28 32 L 9.644531 32 L 9.644531 30.757812 Z M 18.824219 16.488281 "/>
<path fill-rule="evenodd" fill="rgb(45.882353%, 61.176473%, 24.313726%)" fill-opacity="1" d="M 21.246094 18.292969 L 21.246094 0 L 0 0 L 0 21.25 L 14.503906 21.25 L 18.824219 14.523438 Z M 21.246094 18.292969 "/>
<path fill-rule="evenodd" fill="rgb(100%, 100%, 100%)" fill-opacity="1" d="M 9.429688 3.789062 L 18.824219 3.789062 L 18.824219 5.351562 L 9.429688 5.351562 Z M 9.429688 9.832031 L 18.824219 9.832031 L 18.824219 11.398438 L 9.429688 11.398438 Z M 2.085938 4.0625 L 3.210938 3.050781 L 5.46875 5.078125 L 4.34375 6.089844 Z M 3.242188 5.101562 L 6.863281 1.851562 L 7.964844 2.839844 L 4.34375 6.089844 Z M 3.25 11.058594 L 6.867188 7.808594 L 7.96875 8.796875 L 4.347656 12.046875 Z M 3.246094 17.015625 L 6.867188 13.769531 L 7.96875 14.757812 L 4.347656 18.007812 Z M 2.082031 10.019531 L 3.207031 9.007812 L 5.464844 11.035156 L 4.339844 12.046875 Z M 2.089844 15.980469 L 3.214844 14.972656 L 5.472656 17 L 4.347656 18.007812 Z M 9.429688 17.445312 L 16.953125 17.445312 L 17.953125 15.882812 L 9.429688 15.882812 Z M 9.429688 17.445312 "/>
<path fill-rule="evenodd" fill="rgb(45.882353%, 61.176473%, 24.313726%)" fill-opacity="1" d="M 18.824219 16.488281 L 28 30.757812 L 9.644531 30.757812 Z M 18.824219 16.488281 "/>
<path fill-rule="evenodd" fill="rgb(100%, 100%, 100%)" fill-opacity="1" d="M 25.980469 29.710938 L 11.667969 29.710938 L 18.800781 18.582031 Z M 14.082031 28.457031 L 23.574219 28.457031 L 18.800781 21.089844 Z M 18.207031 26.792969 L 19.4375 26.792969 L 19.4375 27.875 L 18.207031 27.875 Z M 19.398438 24.207031 L 19.089844 26.371094 L 18.53125 26.371094 L 18.242188 24.207031 L 18.242188 22.859375 L 19.402344 22.859375 Z M 19.398438 24.207031 "/>
</svg>

<svg role="img" viewBox="0 0 28 32" xmlns="http://www.w3.org/2000/svg"><path d="M21.246 19.535V1.242H0v21.25h14.504l4.32-6.726Zm-2.422-3.047L28 30.758V32H9.645v-1.242Zm0 0" fill="rgb(29.411766%, 38.039216%, 17.254902%)" fill-rule="evenodd"/><path d="M21.246 18.293V0H0v21.25h14.504l4.32-6.727Zm0 0" fill="rgb(45.882353%, 61.176473%, 24.313726%)" fill-rule="evenodd"/><path d="M9.43 3.79h9.394v1.562H9.43Zm0 6.042h9.394v1.566H9.43Zm-7.344-5.77 1.124-1.01 2.258 2.027L4.344 6.09Zm1.156 1.04 3.621-3.25 1.102.988-3.621 3.25Zm.008 5.957 3.617-3.25 1.102.988-3.621 3.25Zm-.004 5.957 3.621-3.246 1.102.988-3.621 3.25ZM2.082 10.02l1.125-1.012 2.258 2.027-1.125 1.012Zm.008 5.96 1.125-1.007L5.473 17l-1.125 1.008Zm7.34 1.465h7.523l1-1.562H9.43Zm0 0" fill="rgb(100%, 100%, 100%)" fill-rule="evenodd"/><path d="M18.824 16.488 28 30.758H9.645Zm0 0" fill="rgb(45.882353%, 61.176473%, 24.313726%)" fill-rule="evenodd"/><path d="M25.98 29.71H11.668l7.133-11.128Zm-11.898-1.253h9.492l-4.773-7.367Zm4.125-1.664h1.23v1.082h-1.23Zm1.191-2.586-.308 2.164h-.559l-.289-2.164v-1.348h1.16Zm0 0" fill="rgb(100%, 100%, 100%)" fill-rule="evenodd"/></svg>
